img/footer/icon/tvector.svg

<svg width="10" height="18" viewBox="0 0 10 18" fill="none" xmlns="http://www.w3.org/2000/svg">
<path d="M9.25646 14.1541C9.22015 14.0436 9.09767 13.9878 8.98796 14.0264C8.59863 14.1636 8.19022 14.2407 7.77681 14.2546C7.54468 14.2799 7.30983 14.2515 7.09038 14.1717C6.87092 14.092 6.6727 13.9629 6.51099 13.7944C6.34928 13.626 6.22839 13.4227 6.15764 13.2001C6.08839 12.9824 6.06897 12.7519 6.10073 12.5257C6.10211 12.5158 6.10288 12.5059 6.10288 12.4959V7.07934H9.39024C9.50069 7.07934 9.59024 6.98979 9.59024 6.87934V4.66382C9.59024 4.55336 9.50069 4.46382 9.39024 4.46382H6.10288V0.2C6.10288 0.0895428 6.01333 0 5.90288 0H3.55711C3.52395 0.00221492 3.49289 0.016965 3.47022 0.0412543C3.44755 0.0655436 3.43497 0.0975511 3.43505 0.130776C3.38008 1.16286 3.02606 2.15666 2.41613 2.99106C1.83342 3.78822 1.04117 4.40698 0.128619 4.77943C0.0516206 4.81086 0 4.88501 0 4.96818V6.87934C0 6.98979 0.0895431 7.07934 0.2 7.07934H1.74368V12.7812C1.74368 14.7254 3.18221 17.4978 6.97472 17.4368C8.18636 17.4368 9.53047 16.9381 9.93883 16.4932C9.98077 16.4475 9.98866 16.3822 9.96929 16.3233L9.25646 14.1541Z" fill="#EEEDDE"/>
</svg>

<svg xmlns="http://www.w3.org/2000/svg" fill="none" viewBox="0 0 10 18"><path fill="#EEEDDE" d="M9.256 14.154a.208.208 0 0 0-.268-.128c-.39.138-.798.215-1.211.229a1.525 1.525 0 0 1-1.676-1.73.215.215 0 0 0 .002-.03V7.08H9.39a.2.2 0 0 0 .2-.2V4.664a.2.2 0 0 0-.2-.2H6.103V.2a.2.2 0 0 0-.2-.2H3.557a.13.13 0 0 0-.122.13A5.327 5.327 0 0 1 .129 4.78.205.205 0 0 0 0 4.967V6.88c0 .11.09.2.2.2h1.544v5.702c0 1.944 1.438 4.717 5.23 4.656 1.212 0 2.556-.499 2.965-.944a.17.17 0 0 0 .03-.17l-.713-2.169z"/></svg>
